X: 10701
Q: "Slowly."
M: 2/4
L: 1/16
K: Eb
(BG3)(AF3) | E6 e2 | (e2d2)(c2B2) | e6 f2 |\
(ge3)(ec3) | (fd3)(dB3) | (Tc3B)(c3d) | B6 B2 |\
(B2e2)(g2e2) | (d/e/f3) z2B2 | (B2e2)(g2e2) | (d/e/f3) z2B2 |
e6 d2 | (Td2c2)(Tc2B2) | (TB2A2)(TA2G2) | HG2HF2 z2B2 |\
(BG3)(AF3) | E6 e2 | (Te2d2)(c2B2) | Ha6 f2 |\
(ge3)(ec3) | (Bcde de)(EA) | G4 F4 | E4 z2 |]


